dist/img/icons/image-icon.svg

<svg width="20" height="15" viewBox="0 0 20 15" fill="none" xmlns="http://www.w3.org/2000/svg">
<path d="M18.125 15C19.1406 15 20 14.1797 20 13.125V1.875C20 0.859375 19.1406 0 18.125 0H1.875C0.820312 0 0 0.859375 0 1.875V13.125C0 14.1797 0.820312 15 1.875 15H18.125ZM4.375 2.1875C5.54688 2.1875 6.5625 3.20312 6.5625 4.375C6.5625 5.58594 5.54688 6.5625 4.375 6.5625C3.16406 6.5625 2.1875 5.58594 2.1875 4.375C2.1875 3.20312 3.16406 2.1875 4.375 2.1875ZM2.5 12.5V10.625L5.27344 7.85156C5.46875 7.65625 5.74219 7.65625 5.9375 7.85156L8.125 10L13.3984 4.72656C13.5938 4.53125 13.8672 4.53125 14.0625 4.72656L17.5 8.125V12.5H2.5Z" fill="white"/>
</svg>

<svg xmlns="http://www.w3.org/2000/svg" width="20" height="15" fill="none">
	<path fill="#fff"
		d="M18.125 15C19.141 15 20 14.18 20 13.125V1.875C20 .859 19.14 0 18.125 0H1.875C.82 0 0 .86 0 1.875v11.25C0 14.18.82 15 1.875 15h16.25ZM4.375 2.187c1.172 0 2.188 1.016 2.188 2.188 0 1.21-1.016 2.188-2.188 2.188a2.184 2.184 0 0 1-2.188-2.188c0-1.172.977-2.188 2.188-2.188ZM2.5 12.5v-1.875l2.773-2.773a.45.45 0 0 1 .665 0L8.124 10l5.273-5.273a.45.45 0 0 1 .665 0L17.5 8.125V12.5h-15Z" />
</svg>
